X:1
T:Title
%%score [ ( 1 2 ) ( 3 4 ) ]
L:1/8
Q:1/4=100
M:4/4
K:D
V:1 treble nm="Midi_20"
V:2 treble 
V:3 bass nm="Midi_20"
V:4 bass 
V:1
"^Nachtlied (10 10. 10 10. 10 10)""^The day is gently sinking""^Christopher Wordsworth\n(1807-85)" F2 | %1
w: |
w: |
w: |
w: |
 F4 F4 | G4 F4 | B2 A2 D2 E2 | (F4 E4) || A4 G2 G2 | B2 A2 G2"^Henry Smart\n(1813-1879)" F2 | %7
w: ||||||
w: ||||||
w: ||||||
w: ||||||
 E4 G4 | F6 || A2 | A4 A4 | (A4 ^G2) A2 | B2 ^G2 B2 c2 | d4 || B4 | e4 (d2 c2) | d2 c2 B2 A2 | %17
w: ||||of * *|||E-|ter- nal *||
w: ||||of * *||||* our *||
w: ||||lone\- * *||||earth- ly *||
w: ||||sun\- * *||||* a\- *||
 A4 (B2 ^G2) | A8 || d4 c2 A2 | B4 A4 | G2 G2 G2 G2 | (e4 d4) || (c2 e2) d2 B2 | A2 F2 G2 E2 | %25
w: ||||||||
w: ||||||||
w: ||||||||
w: ||||||||
 D4 (E2 F2) | D6 |] %27
w: ||
w: ||
w: ||
w: ||
V:2
 D2 | D4 D4 | D4 D4 | D2 D2 D2 D2 | (D4 C2 E2) || E4 ^D2 E2 | E2 ^D2 E2 =D2 | D4 C4 | D6 || D2 | %10
w: The|day is|gent- ly|sink- ing to a|close, * *|Faint- er and|yet more faint the||glows:|O|
w: Our|change- ful|lives are|ebb- ing to an|end; * *|On- ward to|dark- ness and to|death *|tend;|O|
w: ~Thou,|who in|dark- ness|walk- ing didst ap-|pear * *|Up- on the|waves, and Thy dis-|ci- *|cheer,|Come,|
w: The|wea- ry|world is|moulder- ing to de-|cay, * *|Its glo- ries|wane, its pa- geants|fade *|way:|In|
 F4 E4 | E6 F2 | E2 E2 E2 E2 | ^G4 || ^G4 | A4 ^A4 | B2 F2 F2 F2 | E4 (E2 D2) | C8 || A4 A2 E2 | %20
w: Bright- ness|* Thy|Fa- thers glo- ry,|Thou|||Light of light, be|with us *|now:||
w: Con- queror|* the|grave, be Thou our|Guide;|Be|Thou *|Light in deaths dark|ev- en\- *|tide;||
w: Lord, in|* some|days, when storms as-|sail,|And||hopes and hu- man|suc- cours *|fail;||
w: that last|* set,|when the stars shall|fall,|May|we *|rise, a- wak- ened|by Thy *|call,||
 (F2 G2) (E2 D2) | D2 B,2 C2 D2 | G8 || G4 G2 G2 | E2 B,2 B,2 B,2 | A,4 C4 | D6 |] %27
w: |||||||
w: |||||||
w: |||||||
w: |||||||
V:3
 A,2 | A,4 A,4 | B,4 A,4 | G,2 F,2 G,2 G,2 | A,8 || =C4 B,2 B,2 | B,2 B,2 B,2 B,2 | B,4 (E,2 A,2) | %8
w: |||||||sun- light *|
w: |||||||* we *|
w: |||||||* ples *|
w: |||||||* a\- *|
 A,6 || F,2 | A,4 A,4 | D6 D2 | D2 D2 D2 A,2 | B,4 || E4 | E4 E4 | D2 E2 D2 D2 | C4 (D2 B,2) | %18
w: ||||||||||
w: ||||||||||
w: ||||||||||
w: ||||||||||
 A,8 || F4 E2 C2 | (D2 E2) (C2 A,2) | B,2 D2 C2 B,2 | (A,4 B,4) || (E2 C2) D2 D2 | %24
w: |Where Thou art|pre\- * sent *|dark- ness can- not|be; *|Mid\- * night is|
w: |Then in our|mo\- * tal *|hour will be no|gloom, *|No * sting in|
w: |When all is|dark, * may *|we be- hold Thee|nigh, *|And * hear Thy|
w: |With Thee, O|Lord, * for\- *|ev- er to a-|bide, *|In * that blest|
 A,2 A,2 G,2 G,2 | F,4 (G,2 A,2) | F,6 |] %27
w: glo- rious noon, O|Lord, with *|Thee.|
w: death, no ter- ror|in the *|tomb.|
w: voice, Fear not, for|it is *|I.|
w: day which has no|ev- en\- *|tide.|
V:4
 D,2 | D,4 D,4 | D,4 D,4 | D,2 =C,2 B,,2 B,,2 | (A,,6 G,2) || F,4 B,,2 A,2 | G,2 F,2 E,2 B,,2 | %7
 G,,4 A,,4 | D,6 || D,2 | D,4 C,4 | (B,,4 B,2) A,2 | ^G,2 B,2 G,2 F,2 | E,4 || D,4 | C,4 F,4 | %16
 B,,2 C,2 D,2 D,2 | E,4 E,4 | A,,8 || A,4 A,2 A,2 | (A,2 G,4) F,2 | E,2 E,2 E,2 D,2 | (C,4 B,,4) || %23
 A,,4 B,,2 B,,2 | C,2 ^D,2 E,2 G,,2 | A,,4 A,,4 | D,6 |] %27

